lib/brands/icons/servicenow.svg

<svg xmlns="http://www.w3.org/2000/svg" fill="none" aria-hidden="true" viewBox="0 0 48 48"><g id="servicenow-Icon"><path id="Vector" fill="#81B5A1" fill-rule="evenodd" d="M24 5.97314C12.8 5.97314 4 14.7731 4 25.9731C4 31.8398 6.39999 37.1731 10.1333 40.9065C11.4667 42.2398 13.8667 42.2398 15.4667 41.1731C17.6 39.3065 20.8 38.2398 24 38.2398C27.4667 38.2398 30.1333 39.3065 32.5333 41.1731C34.1333 42.5065 36.2667 42.2398 37.8667 40.6398C41.6 36.9065 44 31.8398 44 25.9731C43.7333 15.0398 34.9333 5.97314 24 5.97314V5.97314ZM23.7333 36.3731C17.6 36.3731 13.6 31.8398 13.6 26.2398C13.6 20.6398 17.6 16.1065 23.7333 16.1065C29.8667 16.1065 33.8667 20.6398 33.8667 26.2398C33.8667 31.8398 29.8667 36.3731 23.7333 36.3731Z" clip-rule="evenodd"/></g></svg>

<svg xmlns="http://www.w3.org/2000/svg" fill="none" aria-hidden="true" viewBox="0 0 48 48"><path fill="#81B5A1" fill-rule="evenodd" d="M24 5.973c-11.2 0-20 8.8-20 20 0 5.867 2.4 11.2 6.133 14.934 1.334 1.333 3.734 1.333 5.334.266C17.6 39.306 20.8 38.24 24 38.24c3.467 0 6.133 1.066 8.533 2.933 1.6 1.334 3.734 1.067 5.334-.533C41.6 36.907 44 31.84 44 25.973c-.267-10.933-9.067-20-20-20Zm-.267 30.4C17.6 36.373 13.6 31.84 13.6 26.24c0-5.6 4-10.133 10.133-10.133 6.134 0 10.134 4.533 10.134 10.133 0 5.6-4 10.133-10.134 10.133Z" clip-rule="evenodd"/></svg>
